svg/fridge_variant_alert_outline.svg

<?xml version="1.0" encoding="UTF-8"?><!DOCTYPE svg PUBLIC "-//W3C//DTD SVG 1.1//EN" "http://www.w3.org/Graphics/SVG/1.1/DTD/svg11.dtd"><svg xmlns="http://www.w3.org/2000/svg" xmlns:xlink="http://www.w3.org/1999/xlink" version="1.1" id="mdi-fridge-variant-alert-outline" width="24" height="24" viewBox="0 0 24 24"><path d="M15 2H5C3.9 2 3 2.9 3 4V19C3 20.11 3.9 21 5 21V22H7V21H13V22H15V21C16.11 21 17 20.11 17 19V4C17 2.9 16.11 2 15 2M9 19H5V14H8V10H5V4H9V19M15 19H11V4H15V19M19 15H21V17H19V15M21 7V13H19V7H21Z" /></svg>

<svg xmlns="http://www.w3.org/2000/svg" viewBox="0 0 24 24"><path d="M15 2H5c-1.1 0-2 .9-2 2v15a2 2 0 0 0 2 2v1h2v-1h6v1h2v-1c1.11 0 2-.89 2-2V4a2 2 0 0 0-2-2M9 19H5v-5h3v-4H5V4h4zm6 0h-4V4h4zm4-4h2v2h-2zm2-8v6h-2V7z"/></svg>
